tests/fixtures/sample.xmp
<x:xmpmeta xmlns:x="adobe:ns:meta/">
 <rdf:RDF xmlns:rdf="http://www.w3.org/1999/02/22-rdf-syntax-ns#">
  <rdf:Description rdf:about=""
   xmlns:crs="http://ns.adobe.com/camera-raw-settings/1.0/"
   crs:Exposure2012="0.00"
   crs:Contrast2012="+25"
   >
  </rdf:Description>
 </rdf:RDF>
</x:xmpmeta>
